X: 1
T: Road to Boston   [D]
M: C|
S: Roaring Jelly collection
R: reel
K: D
e2 |\
"D"f6 ef | g2f2 e2d2 | "A7"c2d2 e2f2 | "D"d2A2 F2A2 |\
"D"f6 ef | g2f2 e2d2 | "A7"c2d2 e2c2 | "D"d6 :|
|: fg |\
"D"a6 ^ga | "B"b2a2 =g2f2 | "Em"g6 fg | "A7"a2g2 f2e2 |\
"D"f6 ef | "G"g2f2 e2d2 | "A7"c2d2 e2c2 | "D"d2A2 d2 :|
